dist/img/icons/guarantee-certificate.svg

<svg width="25" height="25" viewBox="0 0 25 25" fill="none" xmlns="http://www.w3.org/2000/svg">
<path d="M22.9166 0H5.41655C4.26782 0 3.33325 0.93457 3.33325 2.08335V22.0833H4.1666V2.08335C4.1666 1.39419 4.72744 0.83335 5.4166 0.83335H21.2508C20.9887 1.18169 20.8333 1.6146 20.8333 2.08335V22.9167C20.8333 23.6059 20.2725 24.1667 19.5833 24.1667H3.7499V25H19.5833C20.732 25 21.6666 24.0654 21.6666 22.9167V2.08335C21.6666 1.39419 22.2274 0.83335 22.9166 0.83335C23.147 0.83335 23.3333 0.64668 23.3333 0.416699C23.3333 0.186719 23.147 0 22.9166 0Z" fill="white"/>
<path d="M21.2962 23.611L20.3703 24.537H18.5184L18.0555 22.2221H3.70361V1.85178L4.62954 0.462891H21.2962V1.85178V23.611Z" fill="white"/>
<path d="M18.0555 22.2222L18.5184 24.537H1.85178L0.925854 24.074L0.462891 22.2222H18.0555Z" fill="white"/>
<path d="M16.6665 13.75C15.2877 13.75 14.1665 14.8712 14.1665 16.25C14.1665 17.6288 15.2877 18.75 16.6665 18.75C18.0453 18.75 19.1665 17.6288 19.1665 16.25C19.1665 14.8712 18.0453 13.75 16.6665 13.75ZM16.6665 17.9167C15.7473 17.9167 14.9999 17.1691 14.9999 16.25C14.9999 15.3308 15.7474 14.5833 16.6665 14.5833C17.5857 14.5833 18.3332 15.3309 18.3332 16.25C18.3332 17.1692 17.5857 17.9167 16.6665 17.9167Z" fill="#DADAE4"/>
<path d="M17.5 17.9165V19.6382L16.8975 19.2365C16.7575 19.1428 16.5754 19.1428 16.4354 19.2365L15.8333 19.6382V17.9165H15V20.4165C15 20.5703 15.0846 20.7115 15.2204 20.784C15.3554 20.8565 15.5204 20.8481 15.6479 20.7631L16.6667 20.084L17.6854 20.7631C17.755 20.8094 17.8358 20.8332 17.9167 20.8332C17.9841 20.8332 18.0517 20.8169 18.1133 20.784C18.2487 20.7115 18.3333 20.5702 18.3333 20.4165V17.9165H17.5Z" fill="#DADAE4"/>
<path d="M15.0001 4.1665H9.5835V4.99985H15.0001V4.1665Z" fill="#DADAE4"/>
<path d="M19.1666 6.6665H5.83325V7.49985H19.1666V6.6665Z" fill="#DADAE4"/>
<path d="M14.9999 9.1665H5.83325V9.99986H14.9999V9.1665Z" fill="#DADAE4"/>
<path d="M19.1667 9.1665H16.6667V9.99986H19.1667V9.1665Z" fill="#DADAE4"/>
<path d="M19.1666 11.6665H5.83325V12.4999H19.1666V11.6665Z" fill="#DADAE4"/>
<path d="M10.8333 14.1665H5.83325V14.9999H10.8333V14.1665Z" fill="#DADAE4"/>
<path d="M7.9166 16.25H5.83325V17.0834H7.9166V16.25Z" fill="#DADAE4"/>
<path d="M10.8335 16.25H9.5835V17.0834H10.8335V16.25Z" fill="#DADAE4"/>
<path d="M22.9166 0C21.7679 0 20.8333 0.93457 20.8333 2.08335V2.9167C20.8333 3.14668 21.0195 3.33335 21.2499 3.33335H24.5833C24.8137 3.33335 24.9999 3.14668 24.9999 2.9167V2.08335C25 0.93457 24.0654 0 22.9166 0ZM24.1666 2.5H21.6666V2.08335C21.6666 1.39419 22.2274 0.83335 22.9166 0.83335C23.6058 0.83335 24.1666 1.39419 24.1666 2.08335V2.5Z" fill="white"/>
<path d="M19.5833 24.1665C18.8942 24.1665 18.3333 23.6057 18.3333 22.9165V22.0832C18.3333 21.8527 18.1471 21.6665 17.9167 21.6665H0.41665C0.18667 21.6665 0 21.8527 0 22.0832V22.9165C0 24.0653 0.93457 24.9998 2.08335 24.9998H19.5833C19.8138 24.9998 20 24.8136 20 24.5832C20 24.3528 19.8138 24.1665 19.5833 24.1665ZM2.08335 24.1665C1.39419 24.1665 0.83335 23.6057 0.83335 22.9165V22.4999H17.5V22.9165C17.5 23.3853 17.6554 23.8182 17.9175 24.1665H2.08335Z" fill="white"/>
</svg>

<svg width="25" height="25" viewBox="0 0 25 25" fill="none" xmlns="http://www.w3.org/2000/svg"><path d="M22.917 0h-17.5a2.086 2.086 0 0 0-2.084 2.083v20h.834v-20c0-.689.56-1.25 1.25-1.25H21.25a2.072 2.072 0 0 0-.418 1.25v20.834c0 .689-.56 1.25-1.25 1.25H3.75V25h15.833a2.086 2.086 0 0 0 2.084-2.083V2.083c0-.689.56-1.25 1.25-1.25a.417.417 0 1 0 0-.833z" fill="#fff"/><path d="M21.296 23.611l-.926.926h-1.852l-.463-2.315H3.704V1.852L4.63.462h16.666v23.149z" fill="#fff"/><path d="M18.055 22.222l.463 2.315H1.852l-.926-.463-.463-1.852h17.593z" fill="#fff"/><path d="M16.666 13.75a2.502 2.502 0 0 0-2.5 2.5c0 1.379 1.122 2.5 2.5 2.5 1.38 0 2.5-1.121 2.5-2.5s-1.12-2.5-2.5-2.5zm0 4.167c-.919 0-1.666-.748-1.666-1.667 0-.92.747-1.667 1.666-1.667.92 0 1.667.748 1.667 1.667 0 .92-.747 1.667-1.666 1.667z" fill="#DADAE4"/><path d="M17.5 17.916v1.722l-.602-.402a.415.415 0 0 0-.463 0l-.602.402v-1.722H15v2.5a.416.416 0 0 0 .648.347l1.019-.679 1.018.68a.418.418 0 0 0 .648-.348v-2.5H17.5zM15 4.167H9.584V5H15v-.833zM19.167 6.667H5.833V7.5h13.334v-.833zM15 9.166H5.833V10H15v-.834zM19.167 9.166h-2.5V10h2.5v-.834zM19.167 11.666H5.833v.834h13.334v-.834zM10.833 14.166h-5V15h5v-.834zM7.917 16.25H5.833v.833h2.084v-.833zM10.834 16.25h-1.25v.833h1.25v-.833z" fill="#DADAE4"/><path d="M22.917 0a2.086 2.086 0 0 0-2.084 2.083v.834c0 .23.187.416.417.416h3.333c.23 0 .417-.186.417-.416v-.834A2.086 2.086 0 0 0 22.917 0zm1.25 2.5h-2.5v-.417c0-.689.56-1.25 1.25-1.25.689 0 1.25.561 1.25 1.25V2.5zM19.583 24.166c-.689 0-1.25-.56-1.25-1.25v-.833a.416.416 0 0 0-.416-.416H.417a.417.417 0 0 0-.417.416v.834C0 24.064.935 25 2.083 25h17.5a.416.416 0 1 0 0-.834zm-17.5 0c-.689 0-1.25-.56-1.25-1.25V22.5H17.5v.416c0 .47.155.902.418 1.25H2.082z" fill="#fff"/></svg>
